svg/fire_extinguisher.svg

<svg xmlns="http://www.w3.org/2000/svg" viewBox="0 0 32 32" enable-background="new 0 0 32 32"><path d="M 16 4 C 14.707632 4 13.605616 4.8441574 13.1875 6 L 12 6 C 9.2545455 6 7 8.2545455 7 11 L 9 11 C 9 9.3454545 10.345455 8 12 8 L 13 8 L 13 10.46875 C 12.681459 10.707274 12.267292 11.045208 11.78125 11.53125 C 10.952683 12.359817 10 13.5 10 15 L 10 27 L 10 28 L 11 28 L 21 28 L 22 28 L 22 27 L 22 15 C 22 13.5 21.047317 12.359817 20.21875 11.53125 C 19.732708 11.045208 19.318541 10.707274 19 10.46875 L 19 10.1875 L 23.84375 11 L 25 11.1875 L 25 10 L 25 6 L 25 4.8125 L 23.84375 5 L 18.75 5.84375 C 18.291904 4.768608 17.234091 4 16 4 z M 16 6 C 16.554545 6 17 6.4454545 17 7 L 17 9 L 17 9.84375 L 17 10 L 15 10 L 15 7 C 15 6.4454545 15.445455 6 16 6 z M 23 7.1875 L 23 8.8125 L 19 8.125 L 19 7.875 L 23 7.1875 z M 14.375 12 L 17.625 12 C 17.77574 12.104818 18.203327 12.390827 18.78125 12.96875 C 19.452683 13.640183 20 14.5 20 15 L 20 26 L 12 26 L 12 15 C 12 14.5 12.547317 13.640183 13.21875 12.96875 C 13.796673 12.390827 14.22426 12.104818 14.375 12 z M 14 17 L 14 19 L 18 19 L 18 17 L 14 17 z" color="#000" overflow="visible" enable-background="accumulate"/></svg>

<svg xmlns="http://www.w3.org/2000/svg" viewBox="0 0 32 32"><path style="text-indent:0;text-align:start;line-height:normal;text-transform:none;block-progression:tb;-inkscape-font-specification:Bitstream Vera Sans" d="M16 4c-1.292 0-2.394.844-2.813 2H12c-2.745 0-5 2.255-5 5h2c0-1.655 1.345-3 3-3h1v2.47c-.32.237-.733.575-1.22 1.06C10.954 12.36 10 13.5 10 15v13h12V15c0-1.5-.953-2.64-1.78-3.47-.487-.485-.9-.823-1.22-1.06v-.283l4.844.813 1.156.188V4.812L23.844 5l-5.094.844C18.292 4.77 17.234 4 16 4zm0 2c.555 0 1 .445 1 1v3h-2V7c0-.555.445-1 1-1zm7 1.188v1.625l-4-.688v-.25l4-.688zM14.375 12h3.25c.15.105.578.39 1.156.97.673.67 1.22 1.53 1.22 2.03v11h-8V15c0-.5.547-1.36 1.22-2.03.577-.58 1.004-.865 1.155-.97zM14 17v2h4v-2h-4z" color="#000" overflow="visible" font-family="Bitstream Vera Sans"/></svg>
